public/assets/images/icons/secured-fdic.svg

<svg width="106" height="66" viewBox="0 0 106 66" fill="none" xmlns="http://www.w3.org/2000/svg">
<path d="M0.830195 2.40125C1.1602 2.40125 1.7002 2.55125 2.0302 2.70125C2.5702 3.00125 2.6002 3.39125 2.6002 9.15125C2.6002 14.9112 2.5702 15.3012 2.0302 15.6012C1.7002 15.7512 1.1602 15.9012 0.830195 15.9012C0.320195 15.9012 0.200195 16.0812 0.200195 16.9512V18.0012H4.1002H8.0002V16.9512C8.0002 16.0212 7.91019 15.9012 7.2502 15.9012C6.83019 15.9012 6.2302 15.6312 5.9002 15.3012C5.36019 14.7612 5.3002 14.3112 5.3002 9.69125C5.3002 6.93125 5.4202 4.80125 5.5402 4.95125C5.6902 5.13125 6.8002 8.13125 8.0002 11.6412L10.2202 18.0312L11.2402 17.9412L12.2602 17.8512L14.7202 11.3112L17.1502 4.77125L17.2402 9.96125C17.3302 15.6612 17.2402 15.9012 15.4402 15.9012C14.6902 15.9012 14.6002 15.9912 14.6002 16.9512V18.0012H19.2502H23.9002V16.9512C23.9002 15.9612 23.8402 15.9012 22.9102 15.9012C22.3702 15.9012 21.7702 15.7512 21.5602 15.5412C21.2902 15.2712 21.2002 13.4712 21.2002 9.27125C21.2002 2.85125 21.2002 2.88125 22.9402 2.52125C23.7502 2.34125 23.9002 2.19125 23.9002 1.44125V0.571247L19.8202 0.661247L15.7402 0.751247L13.9402 5.70125C12.9502 8.43125 12.0502 10.7412 11.9302 10.8612C11.8402 10.9812 10.9402 8.73125 9.95019 5.85125L8.1502 0.601248H4.1902H0.200195V1.50125C0.200195 2.22125 0.320195 2.40125 0.830195 2.40125Z" fill="white"/>
<path fill-rule="evenodd" clip-rule="evenodd" d="M64.3705 2.40156C64.8805 2.40156 65.3005 2.58156 65.4205 2.88156C65.5105 3.15156 65.6005 6.66156 65.6005 10.6816V18.0016H66.4705C67.0105 18.0016 67.4905 17.7616 67.7605 17.3416L68.1805 16.7116L69.1705 17.4316C70.5505 18.4516 73.7005 18.4816 75.1405 17.4616C76.7905 16.2616 77.4505 14.6416 77.4505 11.7016C77.4505 8.46156 76.6705 6.81156 74.6005 5.76156C72.8905 4.92156 72.0205 4.92156 70.2805 5.85156L68.9005 6.57156V3.60156V0.601562H66.2005H63.5005V1.50156C63.5005 2.28156 63.5905 2.40156 64.3705 2.40156ZM73.5805 14.2516C72.6505 16.4416 70.5205 16.6816 69.3805 14.7316C68.3005 12.9016 68.8405 8.25156 70.1605 7.68156C70.3705 7.62156 71.0305 7.56156 71.6005 7.59156C72.4105 7.65156 72.7705 7.86156 73.3105 8.67156C74.1205 9.87156 74.2705 12.6016 73.5805 14.2516Z" fill="white"/>
<path fill-rule="evenodd" clip-rule="evenodd" d="M25.3999 11.7595C25.3999 14.9995 26.8399 17.0995 29.5699 17.9095C32.6299 18.7795 35.3299 17.8495 36.4699 15.4795C37.3399 13.7095 37.2799 13.4995 35.8999 13.4995C35.0599 13.4995 34.6999 13.6195 34.6999 13.9195C34.6999 14.1595 34.3999 14.7295 34.0099 15.1495C33.1399 16.1695 31.4599 16.2895 30.2899 15.4195C29.4499 14.7895 28.5499 12.7795 28.8799 12.2695C28.9699 12.1195 30.8599 11.9995 33.0799 11.9995C37.6399 11.9995 37.4299 12.1495 36.7699 9.38948C36.3199 7.64948 34.6699 5.87948 33.0499 5.42948C31.6399 5.03948 31.0099 5.03948 29.5999 5.45948C27.0799 6.17948 25.3999 8.69948 25.3999 11.7595ZM33.4999 9.29948V10.2295L31.3399 10.1395L29.1499 10.0495L29.2099 9.14948C29.3299 7.40948 31.6399 6.53948 32.8999 7.79948C33.2299 8.12948 33.4999 8.78948 33.4999 9.29948Z" fill="white"/>
<path d="M45.4399 6.51L44.5999 7.32V6.36V5.4H41.7499H38.8999V6.3C38.8999 7.02 39.0199 7.2 39.5299 7.2C39.8599 7.2 40.3999 7.35 40.7299 7.5C41.2399 7.8 41.2999 8.16 41.2999 11.67C41.2999 15.84 41.2699 15.9 39.6199 15.9C38.9899 15.9 38.8999 16.05 38.8999 16.95V18H42.6499H46.3999V16.95C46.3999 16.14 46.2799 15.9 45.8599 15.9C44.8399 15.9 44.5999 15.27 44.5999 12.42C44.5999 10.08 44.6899 9.54 45.2899 8.67C45.8899 7.77 46.1299 7.65 47.2999 7.65C49.0699 7.65 49.3999 8.28 49.3999 11.94C49.3999 15.09 49.1299 15.9 48.0199 15.9C47.3599 15.9 47.2699 16.02 47.3599 16.86L47.4499 17.85H50.7499H54.0499L54.1399 16.86C54.2299 16.08 54.1399 15.9 53.6899 15.9C52.6399 15.9 52.3999 15.27 52.3999 12.6C52.3999 9.66 52.9399 8.19 54.2899 7.56C55.4899 6.96 56.4799 7.32 56.8699 8.43C57.3199 9.75 57.2899 15.09 56.8399 15.54C56.6299 15.75 56.2399 15.9 55.9399 15.9C55.5199 15.9 55.3999 16.14 55.3999 16.95V18H58.9999H62.5999V16.95C62.5999 15.96 62.5399 15.9 61.5499 15.9C60.2599 15.9 60.2299 15.81 60.1399 10.74C60.0499 7.2 59.9899 6.9 59.3299 6.18C57.9499 4.71 55.2499 4.86 53.2999 6.51L52.3699 7.29L51.9199 6.63C50.9599 5.28 48.7699 4.74 46.9999 5.43C46.5799 5.61 45.8899 6.09 45.4399 6.51Z" fill="white"/>
<path fill-rule="evenodd" clip-rule="evenodd" d="M80.06 11.2518C79.88 13.9818 80.3 15.2718 81.8 16.6218C84.35 18.9018 88.19 18.8418 90.35 16.4418C90.92 15.8118 91.4 15.1218 91.4 14.8818C91.4 14.6418 91.49 14.2518 91.58 13.9818C91.73 13.5918 91.55 13.5018 90.59 13.5018C89.57 13.5018 89.39 13.6218 89.09 14.4018C88.88 15.0018 88.37 15.4518 87.71 15.7518C86.03 16.4418 84.5 15.7518 83.72 13.8918C82.91 11.9718 82.85 12.0018 87.53 12.0018H91.79L91.61 10.6518C91.04 6.63182 88.1 4.47182 84.32 5.40182C81.77 6.00182 80.27 8.07182 80.06 11.2518ZM88.1 9.30182V10.2018H85.85C83.69 10.2018 83.6 10.1718 83.6 9.48182C83.6 9.09182 83.87 8.43182 84.23 7.98182C85.01 6.99182 86.6 6.90182 87.5 7.80182C87.83 8.13182 88.1 8.79182 88.1 9.30182Z" fill="white"/>
<path d="M99.8005 6.45C99.3805 6.96 99.3505 6.93 99.2005 6.27C99.0205 5.58 98.9005 5.55 96.2605 5.46L93.5005 5.37V6.3C93.5005 7.02 93.6205 7.2 94.1305 7.2C94.4605 7.2 95.0005 7.35 95.3305 7.5C95.8405 7.8 95.9005 8.16 95.9005 11.67C95.9005 15.84 95.8705 15.9 94.2205 15.9C93.5905 15.9 93.5005 16.05 93.5005 16.95V18H97.5505H101.6V16.95C101.6 15.99 101.51 15.9 100.76 15.9C99.4105 15.9 99.2005 15.42 99.2005 12.57C99.2005 8.73 100.13 6.87 102.02 6.93C102.53 6.93 102.77 7.02 102.56 7.11C101.81 7.41 101.54 8.7 102.05 9.51C102.74 10.53 104.54 10.38 105.17 9.27C105.83 8.07 105.38 6.42 104.21 5.7C103.1 5.01 102.41 4.98 101.15 5.52C100.64 5.73 100.04 6.15 99.8005 6.45Z" fill="white"/>
<path d="M75.5902 39.2984C74.9002 41.9684 74.9002 47.4584 75.6202 50.0984C77.1502 55.6484 80.9002 60.3284 86.0002 62.9684C89.3902 64.7384 92.2402 65.3984 96.4702 65.3984C100.4 65.3684 101.9 65.1284 104.18 63.9884L105.8 63.2084V57.7184V52.2284L103.19 53.4884C100.79 54.6284 100.34 54.7484 97.7002 54.8384C95.3302 54.9284 94.5502 54.8384 93.1402 54.2984C90.7402 53.3984 88.4302 51.2384 87.3202 48.8384C86.5402 47.1584 86.4502 46.6184 86.4502 44.0984C86.4502 41.6684 86.5702 41.0084 87.2602 39.5384C88.8502 36.0884 91.7302 33.8984 95.4802 33.2684C98.1202 32.8184 100.04 33.2084 103.37 34.7984L105.8 35.9684L105.74 30.5384L105.65 25.0784L103.4 24.3584C101.72 23.8184 100.28 23.6384 97.7002 23.5484C95.8102 23.4884 93.8602 23.5184 93.3502 23.5784C84.6202 24.9884 77.7502 31.0484 75.5902 39.2984Z" fill="white"/>
<path d="M0.500488 65.3984H6.20049H11.9005V57.4484V49.4984H17.3005H22.7005V44.8484V40.1984H17.3005H11.9005V36.8984V33.5984H17.7505H23.6005V28.9484V24.2984H12.0505H0.500488V44.8484V65.3984Z" fill="white"/>
<path fill-rule="evenodd" clip-rule="evenodd" d="M25.3999 65.4595L33.8899 65.3095C40.7899 65.1895 42.8599 65.0395 45.0499 64.5595C53.2999 62.7595 58.3999 58.2295 60.3799 50.9995C61.1299 48.2995 61.1299 41.4295 60.4099 38.6995C58.6099 31.9195 53.7199 26.9995 46.8499 24.9895C45.3499 24.5695 43.4299 24.4495 35.2399 24.3595L25.3999 24.2695V44.8795V65.4595ZM49.6999 44.5495C49.6999 49.2595 47.6899 52.7695 44.0599 54.3895C42.1399 55.2595 39.7999 55.7995 37.9699 55.7995H36.7999V44.6695V33.5095L39.4399 33.6595C41.4799 33.7795 42.5299 34.0195 43.9699 34.6495C47.6899 36.3295 49.6999 39.8095 49.6999 44.5495Z" fill="white"/>
<path d="M62.3 65.3984H68.0001H73.7001V44.8484V24.2984H68.0001H62.3V44.8484V65.3984Z" fill="white"/>
</svg>

<svg width="106" height="66" fill="none" xmlns="http://www.w3.org/2000/svg"><path d="M.83 2.401c.33 0 .87.15 1.2.3.54.3.57.69.57 6.45s-.03 6.15-.57 6.45c-.33.15-.87.3-1.2.3-.51 0-.63.18-.63 1.05v1.05H8v-1.05c0-.93-.09-1.05-.75-1.05-.42 0-1.02-.27-1.35-.6-.54-.54-.6-.99-.6-5.61 0-2.76.12-4.89.24-4.74.15.18 1.26 3.18 2.46 6.69l2.22 6.39 1.02-.09 1.02-.09 2.46-6.54 2.43-6.54.09 5.19c.09 5.7 0 5.94-1.8 5.94-.75 0-.84.09-.84 1.05v1.05h9.3v-1.05c0-.99-.06-1.05-.99-1.05-.54 0-1.14-.15-1.35-.36-.27-.27-.36-2.07-.36-6.27 0-6.42 0-6.39 1.74-6.75.81-.18.96-.33.96-1.08v-.87l-4.08.09-4.08.09-1.8 4.95c-.99 2.73-1.89 5.04-2.01 5.16-.09.12-.99-2.13-1.98-5.01L8.15.601H.2v.9c0 .72.12.9.63.9z" fill="#fff"/><path fill-rule="evenodd" clip-rule="evenodd" d="M64.37 2.402c.51 0 .93.18 1.05.48.09.27.18 3.78.18 7.8v7.32h.87c.54 0 1.02-.24 1.29-.66l.42-.63.99.72c1.38 1.02 4.53 1.05 5.97.03 1.65-1.2 2.31-2.82 2.31-5.76 0-3.24-.78-4.89-2.85-5.94-1.71-.84-2.58-.84-4.32.09l-1.38.72V.602h-5.4v.9c0 .78.09.9.87.9zm9.21 11.85c-.93 2.19-3.06 2.43-4.2.48-1.08-1.83-.54-6.48.78-7.05.21-.06.87-.12 1.44-.09.81.06 1.17.27 1.71 1.08.81 1.2.96 3.93.27 5.58zM25.4 11.76c0 3.24 1.44 5.34 4.17 6.15 3.06.87 5.76-.06 6.9-2.43.87-1.77.81-1.98-.57-1.98-.84 0-1.2.12-1.2.42 0 .24-.3.81-.69 1.23-.87 1.02-2.55 1.14-3.72.27-.84-.63-1.74-2.64-1.41-3.15.09-.15 1.98-.27 4.2-.27 4.56 0 4.35.15 3.69-2.61-.45-1.74-2.1-3.51-3.72-3.96-1.41-.39-2.04-.39-3.45.03-2.52.72-4.2 3.24-4.2 6.3zm8.1-2.46v.93l-2.16-.09-2.19-.09.06-.9c.12-1.74 2.43-2.61 3.69-1.35.33.33.6.99.6 1.5z" fill="#fff"/><path d="M45.44 6.51l-.84.81V5.4h-5.7v.9c0 .72.12.9.63.9.33 0 .87.15 1.2.3.51.3.57.66.57 4.17 0 4.17-.03 4.23-1.68 4.23-.63 0-.72.15-.72 1.05V18h7.5v-1.05c0-.81-.12-1.05-.54-1.05-1.02 0-1.26-.63-1.26-3.48 0-2.34.09-2.88.69-3.75.6-.9.84-1.02 2.01-1.02 1.77 0 2.1.63 2.1 4.29 0 3.15-.27 3.96-1.38 3.96-.66 0-.75.12-.66.96l.09.99h6.6l.09-.99c.09-.78 0-.96-.45-.96-1.05 0-1.29-.63-1.29-3.3 0-2.94.54-4.41 1.89-5.04 1.2-.6 2.19-.24 2.58.87.45 1.32.42 6.66-.03 7.11-.21.21-.6.36-.9.36-.42 0-.54.24-.54 1.05V18h7.2v-1.05c0-.99-.06-1.05-1.05-1.05-1.29 0-1.32-.09-1.41-5.16-.09-3.54-.15-3.84-.81-4.56-1.38-1.47-4.08-1.32-6.03.33l-.93.78-.45-.66c-.96-1.35-3.15-1.89-4.92-1.2-.42.18-1.11.66-1.56 1.08z" fill="#fff"/><path fill-rule="evenodd" clip-rule="evenodd" d="M80.06 11.252c-.18 2.73.24 4.02 1.74 5.37 2.55 2.28 6.39 2.22 8.55-.18.57-.63 1.05-1.32 1.05-1.56s.09-.63.18-.9c.15-.39-.03-.48-.99-.48-1.02 0-1.2.12-1.5.9-.21.6-.72 1.05-1.38 1.35-1.68.69-3.21 0-3.99-1.86-.81-1.92-.87-1.89 3.81-1.89h4.26l-.18-1.35c-.57-4.02-3.51-6.18-7.29-5.25-2.55.6-4.05 2.67-4.26 5.85zm8.04-1.95v.9h-2.25c-2.16 0-2.25-.03-2.25-.72 0-.39.27-1.05.63-1.5.78-.99 2.37-1.08 3.27-.18.33.33.6.99.6 1.5z" fill="#fff"/><path d="M99.8 6.45c-.42.51-.45.48-.6-.18-.18-.69-.3-.72-2.94-.81l-2.76-.09v.93c0 .72.12.9.63.9.33 0 .87.15 1.2.3.51.3.57.66.57 4.17 0 4.17-.03 4.23-1.68 4.23-.63 0-.72.15-.72 1.05V18h8.1v-1.05c0-.96-.09-1.05-.84-1.05-1.35 0-1.56-.48-1.56-3.33 0-3.84.93-5.7 2.82-5.64.51 0 .75.09.54.18-.75.3-1.02 1.59-.51 2.4.69 1.02 2.49.87 3.12-.24.66-1.2.21-2.85-.96-3.57-1.11-.69-1.8-.72-3.06-.18-.51.21-1.11.63-1.35.93zM75.59 39.298c-.69 2.67-.69 8.16.03 10.8 1.53 5.55 5.28 10.23 10.38 12.87 3.39 1.77 6.24 2.43 10.47 2.43 3.93-.03 5.43-.27 7.71-1.41l1.62-.78v-10.98l-2.61 1.26c-2.4 1.14-2.85 1.26-5.49 1.35-2.37.09-3.15 0-4.56-.54-2.4-.9-4.71-3.06-5.82-5.46-.78-1.68-.87-2.22-.87-4.74 0-2.43.12-3.09.81-4.56 1.59-3.45 4.47-5.64 8.22-6.27 2.64-.45 4.56-.06 7.89 1.53l2.43 1.17-.06-5.43-.09-5.46-2.25-.72c-1.68-.54-3.12-.72-5.7-.81-1.89-.06-3.84-.03-4.35.03-8.73 1.41-15.6 7.47-17.76 15.72zM.5 65.398h11.4v-15.9h10.8v-9.3H11.9v-6.6h11.7v-9.3H.5v41.1z" fill="#fff"/><path fill-rule="evenodd" clip-rule="evenodd" d="M25.4 65.46l8.49-.15c6.9-.12 8.97-.27 11.16-.75C53.3 62.76 58.4 58.23 60.38 51c.75-2.7.75-9.57.03-12.3-1.8-6.78-6.69-11.7-13.56-13.71-1.5-.42-3.42-.54-11.61-.63l-9.84-.09v41.19zm24.3-20.91c0 4.71-2.01 8.22-5.64 9.84-1.92.87-4.26 1.41-6.09 1.41H36.8V33.51l2.64.15c2.04.12 3.09.36 4.53.99 3.72 1.68 5.73 5.16 5.73 9.9z" fill="#fff"/><path d="M62.3 65.398h11.4v-41.1H62.3v41.1z" fill="#fff"/></svg>
